usr/share/icons/biglinux-icons-material/24/actions/text_rotation.svg

<svg xmlns="http://www.w3.org/2000/svg" viewBox="0 0 24 24">
  <defs id="defs3051">
    <style type="text/css" id="current-color-scheme">
      .ColorScheme-Text {
        color:#dedede;
      }
      .ColorScheme-Highlight {
        color:#3daee9;
      }
      </style>
  </defs>
 <path 
     style="fill:currentColor;fill-opacity:1;stroke:none" 
     d="M 15.666016 7.8945312 L 14.333984 11.666016 L 13 15.4375 L 13.943359 15.771484 L 14.396484 14.488281 A 4 4 0 0 0 16.771484 16.771484 A 4 4 0 0 0 21.875 14.333984 A 4 4 0 0 0 19.4375 9.2285156 A 4 4 0 0 0 16.15625 9.5117188 L 16.609375 8.2285156 L 15.666016 7.8945312 z M 6 8.4472656 A 4 4 0 0 0 2 12.447266 A 4 4 0 0 0 6 16.447266 A 4 4 0 0 0 9 15.085938 L 9 16.447266 L 10 16.447266 L 10 12.447266 L 10 8.4472656 L 9 8.4472656 L 9 9.8085938 A 4 4 0 0 0 6 8.4472656 z M 6 9.4472656 A 3 3 0 0 1 9 12.447266 A 3 3 0 0 1 6 15.447266 A 3 3 0 0 1 3 12.447266 A 3 3 0 0 1 6 9.4472656 z M 18.011719 10.001953 A 3 3 0 0 1 19.105469 10.171875 A 3 3 0 0 1 20.933594 14 A 3 3 0 0 1 17.105469 15.828125 A 3 3 0 0 1 15.275391 12 A 3 3 0 0 1 18.011719 10.001953 z "
     class="ColorScheme-Text"
     />
 <path 
     style="fill:currentColor;fill-opacity:1;stroke:none" 
     d="M 11 4 L 11 20 L 12 20 L 12 17.580078 L 21.359375 19.685547 L 21.591797 18.658203 L 12 16.5 L 12 4 L 11 4 z "
     class="ColorScheme-Highlight"
     />
</svg>

<svg xmlns="http://www.w3.org/2000/svg" viewBox="0 0 24 24"><path d="m15.666 7.895-1.332 3.771L13 15.437l.943.334.453-1.283a4 4 0 0 0 2.375 2.283 4 4 0 0 0 5.104-2.437 4 4 0 0 0-2.438-5.105 4 4 0 0 0-3.28.283l.452-1.283-.943-.334zM6 8.447a4 4 0 0 0-4 4 4 4 0 0 0 4 4 4 4 0 0 0 3-1.361v1.361h1v-8H9V9.81a4 4 0 0 0-3-1.362zm0 1a3 3 0 0 1 3 3 3 3 0 0 1-3 3 3 3 0 0 1-3-3 3 3 0 0 1 3-3zm12.012.555a3 3 0 0 1 1.093.17A3 3 0 0 1 20.934 14a3 3 0 0 1-3.829 1.828A3 3 0 0 1 15.275 12a3 3 0 0 1 2.737-1.998z" style="fill:currentColor;fill-opacity:1;stroke:none;color:#dedede"/><path d="M11 4v16h1v-2.42l9.36 2.106.232-1.028L12 16.5V4h-1z" style="fill:currentColor;fill-opacity:1;stroke:none;color:#3daee9"/></svg>
